packages/ffe-icons/icons/filled/sm/business_center.svg

<svg xmlns="http://www.w3.org/2000/svg" height="20" viewBox="0 -960 960 960" width="20"><path d="M432-360v-96h96v96h-96Zm-72-339.999h240v-59.691q0-4.616-3.846-8.462-3.847-3.847-8.463-3.847H372.309q-4.616 0-8.463 3.847Q360-764.306 360-759.69v59.691ZM180.309-164.001q-27.008 0-45.658-18.65-18.65-18.65-18.65-45.658v-153.692h264v41.846q0 13.761 9.197 22.957 9.196 9.197 22.957 9.197h135.69q13.761 0 22.957-9.197 9.197-9.196 9.197-22.957v-41.846h264v153.692q0 27.008-18.65 45.658-18.65 18.65-45.658 18.65H180.309Zm-64.308-269.998v-201.692q0-27.008 18.65-45.658 18.65-18.65 45.658-18.65h127.692v-59.903q0-27.095 18.65-45.595t45.658-18.5h215.382q27.008 0 45.658 18.65 18.65 18.65 18.65 45.657v59.691h127.692q27.008 0 45.658 18.65 18.65 18.65 18.65 45.658v201.692h-264v-41.846q0-13.761-9.197-22.957-9.196-9.197-22.957-9.197h-135.69q-13.761 0-22.957 9.197-9.197 9.196-9.197 22.957v41.846h-264Z"/></svg>

<svg xmlns="http://www.w3.org/2000/svg" height="20" viewBox="0 -960 960 960" width="20"><path d="M432-360v-96h96v96h-96Zm-72-340h240v-59.69q0-4.62-3.85-8.46-3.84-3.85-8.46-3.85H372.31q-4.62 0-8.46 3.85-3.85 3.84-3.85 8.46V-700ZM180.31-164q-27.01 0-45.66-18.65Q116-201.3 116-228.31V-382h264v41.84q0 13.77 9.2 22.96 9.19 9.2 22.96 9.2h135.68q13.77 0 22.96-9.2 9.2-9.19 9.2-22.96V-382h264v153.69q0 27.01-18.65 45.66Q806.7-164 779.69-164H180.31ZM116-434v-201.69q0-27.01 18.65-45.66Q153.3-700 180.31-700H308v-59.9q0-27.1 18.65-45.6t45.66-18.5h215.38q27.01 0 45.66 18.65Q652-786.7 652-759.69V-700h127.69q27.01 0 45.66 18.65Q844-662.7 844-635.69V-434H580v-41.84q0-13.77-9.2-22.96-9.19-9.2-22.96-9.2H412.16q-13.77 0-22.96 9.2-9.2 9.19-9.2 22.96V-434H116Z"/></svg>
